X: 34
T:Bourree de Gaston Pommier
M:2/4
L:1/8
R:Bourree
Z:Steve Mansfield
K:G
GB2d | g3b | a>g fe | dc BA | GB2d | g3b | a>g fe | d4 :|
|: B>d Bd | c>e ce | B>d Bd | A4 | GB dg | e3b | a>g fa | g4 :|
<end>
<start>
